packages/sights/assets/overlays/j3E2UHFc.svg

<svg width="500" height="375" viewBox="0 0 500 375" fill="none" xmlns="http://www.w3.org/2000/svg">
<path d="M461.37 75.0087C455.83 58.5187 435.77 26.1887 435.77 26.1887L421.09 16.3287C278.01 -11.1813 105.25 24.9687 105.25 24.9687L99.75 31.9687L103.13 42.1287L44.81 96.3587L15 114.929L9 121.349V127.769L17 161.019L19.06 164.459L9.04 190.369V198.129L18.44 218.459L22.72 231.609L30.72 256.679C30.72 256.679 95.72 332.379 138.41 351.299L216.1 367.129C216.1 367.129 242.24 364.379 244.3 364.379C246.36 364.379 278.01 349.929 278.01 349.929L284.89 340.299C284.89 340.299 328.45 227.489 367.89 211.439C367.89 211.439 389.89 204.559 375.23 251.789L455.49 166.039C455.49 166.039 478.19 101.139 483.69 105.039C483.69 105.039 487.13 107.109 478.87 129.349" stroke="white" stroke-miterlimit="10"/>
<path d="M477.02 112.839C477.02 112.839 483.92 120.889 473.14 149.559C473.14 149.559 464.2 180.049 455.71 185.559L452.28 186.559L440.06 182.559" stroke="white" stroke-miterlimit="10"/>
<path d="M461.68 63.3389L470.39 61.3389C470.39 61.3389 488.28 66.9589 491.14 70.9689V74.7589C491.14 74.7589 487.14 82.3189 484.4 83.6989C484.4 83.6989 465.4 83.8089 463.74 83.0089L461.68 80.5989C461.68 80.5989 460.99 64.1289 461.68 63.3389Z" stroke="white" stroke-miterlimit="10"/>
<path d="M481.25 83.749L482.63 86.379L485.63 96.929C485.63 96.929 485.44 105.189 484.39 108.279" stroke="white" stroke-miterlimit="10"/>
<path d="M352.98 221.639L361.63 224.769C367.28 227.369 369.23 244.629 369.23 244.629C371.23 258.309 365.35 283.769 353.09 310.859C336.32 347.939 313.9 373.999 303.03 369.079L274.33 351.629" stroke="white" stroke-miterlimit="10"/>
<path d="M337.86 116.309L348.4 33.7589C348.4 33.7589 415.13 14.9589 434.85 33.7589C434.85 33.7589 446.57 46.3689 459.63 75.7589C459.63 75.7589 454.11 77.1389 454.8 81.0389L455.49 82.5289L337.86 116.309Z" stroke="white" stroke-miterlimit="10"/>
<path d="M455.49 82.4888H462.9" stroke="white" stroke-miterlimit="10"/>
<path d="M459.63 75.7188L461.53 76.4088" stroke="white" stroke-miterlimit="10"/>
<path d="M105.25 24.9688C105.25 24.9688 238.09 27.5688 262.4 39.4888C262.4 39.4888 275.01 46.8287 291.29 64.2587L249.1 144.969C249.1 144.969 175.25 151.849 78.0599 119.749C78.0599 119.749 30.8199 105.299 44.8099 96.3587" stroke="white" stroke-miterlimit="10"/>
<path d="M103.13 42.1289C103.13 42.1289 108.56 36.7789 116.13 36.1289C116.13 36.1289 267.02 37.2289 282.38 55.3689" stroke="white" stroke-miterlimit="10"/>
<path d="M291.31 64.259C291.31 64.259 300.94 43.159 322.31 36.049C322.31 36.049 399.31 10.299 433.31 27.719C433.31 27.719 441.16 34.849 445.66 42.959" stroke="white" stroke-miterlimit="10"/>
<path d="M18.6899 112.629V122.799L14.6899 151.179" stroke="white" stroke-miterlimit="10"/>
<path d="M112 177.529V181.809L127 205.659L131.28 209.019L164.28 220.329C164.28 220.329 172.53 224.919 174.98 227.979L185.98 236.539C185.98 236.539 253.24 242.649 270.36 227.979C270.36 227.979 290.54 181.809 291.31 175.089C291.31 175.089 289.31 168.359 262.72 171.719C262.72 171.719 228.63 180.279 201.65 179.979C201.65 179.979 151.74 177.839 145.32 175.389C145.32 175.389 116.58 170.189 112 177.529Z" stroke="white" stroke-miterlimit="10"/>
<path d="M249.12 144.969L224.16 178.639" stroke="white" stroke-miterlimit="10"/>
<path d="M185.98 236.539V255.539C185.98 255.539 162.25 280.949 153.73 285.069C153.73 285.069 144.79 291.489 129.19 285.069C129.19 285.069 27.84 231.879 9.04004 196.329" stroke="white" stroke-miterlimit="10"/>
<path d="M19.1299 164.459C19.1299 164.459 26.8499 188.129 27.6099 189.909C27.6099 189.909 81.1199 246.319 160.61 272.909C163.634 273.078 166.667 272.799 169.61 272.079" stroke="white" stroke-miterlimit="10"/>
<path d="M36.9399 232.699L38.4699 247.239L96.0999 295.239V278.269" stroke="white" stroke-miterlimit="10"/>
<path d="M18.4399 218.499C18.4399 218.499 100.99 281.789 103.74 284.499C103.74 284.499 137.37 323.019 146.85 335.499C146.85 335.499 168.99 357.499 177.39 359.189" stroke="white" stroke-miterlimit="10"/>
<path d="M404.59 25.4087C404.59 25.4087 419.9 81.6387 419.25 92.8987L426.57 98.9587L432.99 116.309C432.99 116.309 430.55 155.209 421.99 178.139L425.99 191.289L424.91 198.749" stroke="white" stroke-miterlimit="10"/>
<path d="M379.7 233.009C379.7 233.009 456.63 162.339 460.89 151.209" stroke="white" stroke-miterlimit="10"/>
</svg>

<svg width="500" height="375" fill="none" xmlns="http://www.w3.org/2000/svg"><path d="M461.37 75.009c-5.54-16.49-25.6-48.82-25.6-48.82l-14.68-9.86c-143.08-27.51-315.84 8.64-315.84 8.64l-5.5 7 3.38 10.16-58.32 54.23L15 114.929l-6 6.42v6.42l8 33.25 2.06 3.44-10.02 25.91v7.76l9.4 20.33 4.28 13.15 8 25.07s65 75.7 107.69 94.62l77.69 15.83s26.14-2.75 28.2-2.75c2.06 0 33.71-14.45 33.71-14.45l6.88-9.63s43.56-112.81 83-128.86c0 0 22-6.88 7.34 40.35l80.26-85.75s22.7-64.9 28.2-61c0 0 3.44 2.07-4.82 24.31" stroke="#fff" stroke-miterlimit="10"/><path d="M477.02 112.839s6.9 8.05-3.88 36.72c0 0-8.94 30.49-17.43 36l-3.43 1-12.22-4M461.68 63.339l8.71-2s17.89 5.62 20.75 9.63v3.79s-4 7.56-6.74 8.94c0 0-19 .11-20.66-.69l-2.06-2.41s-.69-16.47 0-17.26ZM481.25 83.749l1.38 2.63 3 10.55s-.19 8.26-1.24 11.35M352.98 221.639l8.65 3.13c5.65 2.6 7.6 19.86 7.6 19.86 2 13.68-3.88 39.14-16.14 66.23-16.77 37.08-39.19 63.14-50.06 58.22l-28.7-17.45M337.86 116.309l10.54-82.55s66.73-18.8 86.45 0c0 0 11.72 12.61 24.78 42 0 0-5.52 1.38-4.83 5.28l.69 1.49-117.63 33.78ZM455.49 82.489h7.41M459.63 75.719l1.9.69M105.25 24.969s132.84 2.6 157.15 14.52c0 0 12.61 7.34 28.89 24.77l-42.19 80.71s-73.85 6.88-171.04-25.22c0 0-47.24-14.45-33.25-23.39" stroke="#fff" stroke-miterlimit="10"/><path d="M103.13 42.129s5.43-5.35 13-6c0 0 150.89 1.1 166.25 19.24M291.31 64.259s9.63-21.1 31-28.21c0 0 77-25.75 111-8.33 0 0 7.85 7.13 12.35 15.24M18.69 112.629v10.17l-4 28.38M112 177.529v4.28l15 23.85 4.28 3.36 33 11.31s8.25 4.59 10.7 7.65l11 8.56s67.26 6.11 84.38-8.56c0 0 20.18-46.17 20.95-52.89 0 0-2-6.73-28.59-3.37 0 0-34.09 8.56-61.07 8.26 0 0-49.91-2.14-56.33-4.59 0 0-28.74-5.2-33.32 2.14ZM249.12 144.969l-24.96 33.67" stroke="#fff" stroke-miterlimit="10"/><path d="M185.98 236.539v19s-23.73 25.41-32.25 29.53c0 0-8.94 6.42-24.54 0 0 0-101.35-53.19-120.15-88.74" stroke="#fff" stroke-miterlimit="10"/><path d="M19.13 164.459s7.72 23.67 8.48 25.45c0 0 53.51 56.41 133 83a30.67 30.67 0 0 0 9-.83M36.94 232.699l1.53 14.54 57.63 48v-16.97" stroke="#fff" stroke-miterlimit="10"/><path d="M18.44 218.499s82.55 63.29 85.3 66c0 0 33.63 38.52 43.11 51 0 0 22.14 22 30.54 23.69M404.59 25.409s15.31 56.23 14.66 67.49l7.32 6.06 6.42 17.35s-2.44 38.9-11 61.83l4 13.15-1.08 7.46" stroke="#fff" stroke-miterlimit="10"/><path d="M379.7 233.009s76.93-70.67 81.19-81.8" stroke="#fff" stroke-miterlimit="10"/></svg>
